src/assets/graphics/apple-store.svg

<?xml version="1.0" encoding="UTF-8"?>
<svg width="152px" height="45px" viewBox="0 0 152 45" version="1.1" xmlns="http://www.w3.org/2000/svg"
     xmlns:xlink="http://www.w3.org/1999/xlink">
  <!-- Generator: Sketch 51.3 (57544) - http://www.bohemiancoding.com/sketch -->
  <title>Rectangle 1 + Imported Layers</title>
  <desc>Created with Sketch.</desc>
  <defs></defs>
  <g id="Page-1" stroke="none" stroke-width="1" fill="none" fill-rule="evenodd">
    <g id="01.Tutorial-Copy-10" transform="translate(-794.000000, -1054.000000)">
      <g id="Rectangle-1-+-Imported-Layers" transform="translate(794.000000, 1054.000000)">
        <g id="Group-14">
          <rect id="Rectangle-1" stroke="#203040" stroke-width="2" x="1" y="1" width="150" height="42.1860465"
                rx="7"></rect>
          <path
            d="M30.0039548,14.3594131 C32.8696346,14.3594131 34.7021183,17.1321085 34.7021183,17.1321085 C34.7021183,17.1321085 31.9067322,18.6490365 31.9067322,21.943443 C31.9067322,25.8535293 35.4183867,26.9909203 35.4183867,26.9909203 C35.4183867,26.9909203 32.6466339,33.5675293 29.5343203,33.5675293 C27.7842498,33.5675293 27.6672957,32.5607187 25.3415442,32.5607187 C23.3218126,32.5607187 22.640691,33.5675293 21.1021076,33.5675293 C18.1655282,33.5675293 14.372093,27.1568915 14.372093,21.943443 C14.372093,16.5280221 18.2127947,14.3594131 20.6203535,14.3594131 C22.7346179,14.3594131 23.615107,15.6035869 25.317911,15.6035869 C26.7510538,15.6035869 27.8787827,14.3594131 30.0039548,14.3594131 L30.0039548,14.3594131 Z M29.511293,8.8372093 C29.9336611,11.4915282 27.5261023,14.7743411 24.648909,14.6675581 C24.2259349,11.2901661 27.3267349,9.01538427 29.511293,8.8372093 Z M51.2348469,15.742754 L53.1898322,15.742754 L58.3845073,29.0366538 L56.429522,29.0366538 L54.9772473,25.0335887 L49.3543373,25.0335887 L47.8648247,29.0366538 L46.0587907,29.0366538 L51.2348469,15.742754 Z M49.9129045,23.5440761 L54.4186801,23.5440761 L52.2030301,17.34398 L52.1657923,17.34398 L49.9129045,23.5440761 Z M59.4830228,19.4106787 L61.0656299,19.4106787 L61.0656299,20.7140022 L61.1028678,20.7140022 C61.3635338,20.1802575 61.7731456,19.7923675 62.3317156,19.5503205 C62.8902856,19.3082735 63.5047034,19.1872518 64.1749875,19.1872518 C64.9197475,19.1872518 65.5682996,19.3237891 66.1206633,19.5968678 C66.6730269,19.8699465 67.1322887,20.2392178 67.4984624,20.7046928 C67.8646361,21.1701678 68.1408138,21.7070076 68.3270038,22.3152282 C68.5131938,22.9234489 68.6062874,23.5688979 68.6062874,24.2515946 C68.6062874,24.9342913 68.5162969,25.5797403 68.3363132,26.187961 C68.1563296,26.7961816 67.883255,27.3268152 67.5170813,27.7798775 C67.1509076,28.2329399 66.6916458,28.5897987 66.1392822,28.8504647 C65.5869185,29.1111307 64.9445726,29.2414617 64.2122253,29.2414617 C63.9763846,29.2414617 63.7126194,29.2166368 63.4209217,29.1669861 C63.129224,29.1173354 62.8406339,29.0366543 62.5551425,28.9249403 C62.2696512,28.8132263 61.9996797,28.6611734 61.7452201,28.4687771 C61.4907604,28.2763808 61.2766451,28.0374405 61.1028678,27.7519492 L61.0656299,27.7519492 L61.0656299,32.7045785 L59.4830228,32.7045785 L59.4830228,19.4106787 Z M66.9305857,24.1398812 C66.9305857,23.6930251 66.8716264,23.2554852 66.7537061,22.8272482 C66.6357858,22.3990112 66.4558048,22.0173274 66.2137578,21.6821854 C65.9717108,21.3470434 65.6613988,21.0801751 65.2828124,20.8815724 C64.9042261,20.6829697 64.4604799,20.5836699 63.9515606,20.5836699 C63.4178159,20.5836699 62.9647603,20.689176 62.5923803,20.9001913 C62.2200003,21.1112066 61.9158946,21.3873843 61.6800539,21.7287327 C61.4442132,22.070081 61.2735416,22.457971 61.1680339,22.8924144 C61.0625263,23.3268577 61.0097732,23.7675008 61.0097732,24.2143568 C61.0097732,24.6860381 61.0656294,25.1421968 61.1773434,25.5828465 C61.2890574,26.0234961 61.4659352,26.4113862 61.7079822,26.7465282 C61.9500292,27.0816702 62.2634444,27.3516416 62.6482371,27.5564506 C63.0330297,27.7612596 63.4984978,27.8636626 64.0446551,27.8636626 C64.5908124,27.8636626 65.0469711,27.7581565 65.4131448,27.5471412 C65.7793185,27.3361258 66.0741149,27.056845 66.2975429,26.7092904 C66.5209709,26.3617357 66.6823331,25.9645363 66.7816345,25.5176803 C66.8809358,25.0708243 66.9305857,24.6115625 66.9305857,24.1398812 Z M70.5240348,19.4106787 L72.1066419,19.4106787 L72.1066419,20.7140022 L72.1438798,20.7140022 C72.4045458,20.1802575 72.8141576,19.7923675 73.3727276,19.5503205 C73.9312976,19.3082735 74.5457154,19.1872518 75.2159995,19.1872518 C75.9607595,19.1872518 76.6093116,19.3237891 77.1616753,19.5968678 C77.7140389,19.8699465 78.1733007,20.2392178 78.5394744,20.7046928 C78.9056481,21.1701678 79.1818258,21.7070076 79.3680158,22.3152282 C79.5542058,22.9234489 79.6472994,23.5688979 79.6472994,24.2515946 C79.6472994,24.9342913 79.5573089,25.5797403 79.3773252,26.187961 C79.1973416,26.7961816 78.924267,27.3268152 78.5580933,27.7798775 C78.1919196,28.2329399 77.7326578,28.5897987 77.1802942,28.8504647 C76.6279305,29.1111307 75.9855846,29.2414617 75.2532373,29.2414617 C75.0173966,29.2414617 74.7536314,29.2166368 74.4619337,29.1669861 C74.170236,29.1173354 73.8816459,29.0366543 73.5961545,28.9249403 C73.3106632,28.8132263 73.0406917,28.6611734 72.7862321,28.4687771 C72.5317724,28.2763808 72.3176571,28.0374405 72.1438798,27.7519492 L72.1066419,27.7519492 L72.1066419,32.7045785 L70.5240348,32.7045785 L70.5240348,19.4106787 Z M77.9715977,24.1398812 C77.9715977,23.6930251 77.9126384,23.2554852 77.7947181,22.8272482 C77.6767978,22.3990112 77.4968168,22.0173274 77.2547698,21.6821854 C77.0127228,21.3470434 76.7024108,21.0801751 76.3238244,20.8815724 C75.9452381,20.6829697 75.5014919,20.5836699 74.9925726,20.5836699 C74.4588279,20.5836699 74.0057723,20.689176 73.6333923,20.9001913 C73.2610123,21.1112066 72.9569066,21.3873843 72.7210659,21.7287327 C72.4852252,22.070081 72.3145536,22.457971 72.2090459,22.8924144 C72.1035383,23.3268577 72.0507852,23.7675008 72.0507852,24.2143568 C72.0507852,24.6860381 72.1066414,25.1421968 72.2183554,25.5828465 C72.3300694,26.0234961 72.5069472,26.4113862 72.7489942,26.7465282 C72.9910412,27.0816702 73.3044564,27.3516416 73.6892491,27.5564506 C74.0740417,27.7612596 74.5395098,27.8636626 75.0856671,27.8636626 C75.6318244,27.8636626 76.0879831,27.7581565 76.4541568,27.5471412 C76.8203305,27.3361258 77.1151269,27.056845 77.3385549,26.7092904 C77.5619829,26.3617357 77.7233451,25.9645363 77.8226465,25.5176803 C77.9219478,25.0708243 77.9715977,24.6115625 77.9715977,24.1398812 Z M94.6355197,19.6341056 C94.5362184,18.6783302 94.191772,17.9863344 93.6021704,17.5580974 C93.0125687,17.1298604 92.2585105,16.9157451 91.3399731,16.9157451 C90.9675931,16.9157451 90.6014249,16.9529826 90.2414576,17.0274586 C89.8814903,17.1019346 89.5618689,17.2260594 89.2825839,17.3998367 C89.0032989,17.5736141 88.7798742,17.8063481 88.6123032,18.0980457 C88.4447322,18.3897434 88.360948,18.7528085 88.360948,19.1872518 C88.360948,19.5968698 88.4819697,19.9289037 88.7240167,20.1833634 C88.9660637,20.437823 89.2887882,20.6457321 89.6921998,20.8070968 C90.0956115,20.9684614 90.5517702,21.1018956 91.0606895,21.2074033 C91.5696089,21.3129109 92.0878299,21.4277264 92.6153683,21.551853 C93.1429066,21.6759797 93.6611277,21.8218264 94.170047,21.9893974 C94.6789664,22.1569684 95.135125,22.3834961 95.5385367,22.6689875 C95.9419484,22.9544788 96.2646729,23.3144408 96.5067199,23.7488841 C96.7487669,24.1833274 96.8697886,24.7294766 96.8697886,25.3873479 C96.8697886,26.09487 96.7115295,26.6999784 96.3950065,27.2026914 C96.0784834,27.7054044 95.6719747,28.1150163 95.175468,28.4315393 C94.6789614,28.7480623 94.1235028,28.9776932 93.5090758,29.1204388 C92.8946488,29.2631845 92.2833341,29.3345563 91.6751135,29.3345563 C90.9303535,29.3345563 90.2259452,29.2414627 89.5618675,29.0552727 C88.8977898,28.8690827 88.3144032,28.5866987 87.8116902,28.2081124 C87.3089772,27.829526 86.9117778,27.3454393 86.6200801,26.7558376 C86.3283825,26.1662359 86.1825358,25.4680339 86.1825358,24.6612106 L87.8582375,24.6612106 C87.8582375,25.2197806 87.9668467,25.7007642 88.1840684,26.1041759 C88.40129,26.5075875 88.6867771,26.8396214 89.0405381,27.1002874 C89.3942991,27.3609534 89.8070141,27.5533469 90.2786954,27.6774735 C90.7503768,27.8016002 91.2344635,27.8636626 91.7309702,27.8636626 C92.1281755,27.8636626 92.528478,27.8264252 92.9318897,27.7519492 C93.3353014,27.6774732 93.6983664,27.5502452 94.0210958,27.3702616 C94.3438251,27.1902779 94.6044872,26.9451314 94.8030899,26.6348147 C95.0016926,26.3244981 95.1009924,25.9272987 95.1009924,25.4432047 C95.1009924,24.983936 94.9799707,24.6115616 94.7379237,24.3260702 C94.4958767,24.0405789 94.1731522,23.8078449 93.7697405,23.6278612 C93.3663289,23.4478775 92.9101702,23.3020309 92.4012508,23.1903169 C91.8923315,23.0786029 91.3741104,22.9637874 90.8465721,22.8458671 C90.3190338,22.7279468 89.8008127,22.5914095 89.2918933,22.4362511 C88.782974,22.2810928 88.3268153,22.0762869 87.9234037,21.8218272 C87.519992,21.5673675 87.1972675,21.2384368 86.9552205,20.8350251 C86.7131735,20.4316134 86.5921518,19.9258049 86.5921518,19.3175842 C86.5921518,18.6473002 86.7286891,18.0670167 87.0017677,17.5767163 C87.2748464,17.086416 87.6379115,16.6830104 88.0909738,16.3664874 C88.5440362,16.0499644 89.0591541,15.8141272 89.6363431,15.6589689 C90.2135321,15.5038106 90.8062281,15.4262326 91.4144488,15.4262326 C92.0971454,15.4262326 92.730182,15.5069137 93.3135773,15.6682784 C93.8969726,15.829643 94.4089875,16.0840989 94.8496372,16.4316535 C95.2902868,16.7792082 95.6378363,17.2167482 95.892296,17.7442865 C96.1467556,18.2718249 96.286396,18.9017583 96.3112214,19.6341056 L94.6355197,19.6341056 Z M100.947329,19.4106787 L102.865077,19.4106787 L102.865077,20.8070968 L100.947329,20.8070968 L100.947329,26.783766 C100.947329,26.969956 100.962845,27.1189058 100.993877,27.2306198 C101.024908,27.3423338 101.083867,27.4292211 101.170756,27.4912845 C101.257645,27.5533478 101.378667,27.5936884 101.533825,27.6123074 C101.688983,27.6309264 101.890686,27.6402357 102.138939,27.6402357 L102.865077,27.6402357 L102.865077,29.0366538 L101.654848,29.0366538 C101.24523,29.0366538 100.894577,29.0087257 100.602879,28.9528687 C100.311182,28.8970117 100.075345,28.7946087 99.895361,28.6456567 C99.7153773,28.4967047 99.5819432,28.2856925 99.4950545,28.0126139 C99.4081658,27.7395352 99.3647222,27.3795732 99.3647222,26.9327172 L99.3647222,20.8070968 L97.7262583,20.8070968 L97.7262583,19.4106787 L99.3647222,19.4106787 L99.3647222,16.5247481 L100.947329,16.5247481 L100.947329,19.4106787 Z M104.093925,24.2329757 C104.093925,23.5254537 104.193224,22.8644891 104.391827,22.2500621 C104.59043,21.6356351 104.888329,21.1018984 105.285535,20.648836 C105.68274,20.1957737 106.173033,19.8389149 106.756428,19.5782489 C107.339824,19.3175829 108.010098,19.1872518 108.76727,19.1872518 C109.536856,19.1872518 110.210233,19.3175829 110.787422,19.5782489 C111.364611,19.8389149 111.851801,20.1957737 112.249006,20.648836 C112.646211,21.1018984 112.944111,21.6356351 113.142714,22.2500621 C113.341316,22.8644891 113.440616,23.5254537 113.440616,24.2329757 C113.440616,24.9404977 113.341316,25.5983592 113.142714,26.2065799 C112.944111,26.8148005 112.646211,27.3454341 112.249006,27.7984964 C111.851801,28.2515588 111.364611,28.6053145 110.787422,28.8597741 C110.210233,29.1142338 109.536856,29.2414617 108.76727,29.2414617 C108.010098,29.2414617 107.339824,29.1142338 106.756428,28.8597741 C106.173033,28.6053145 105.68274,28.2515588 105.285535,27.7984964 C104.888329,27.3454341 104.59043,26.8148005 104.391827,26.2065799 C104.193224,25.5983592 104.093925,24.9404977 104.093925,24.2329757 Z M105.769626,24.2329757 C105.769626,24.816371 105.847204,25.3345921 106.002363,25.7876544 C106.157521,26.2407168 106.371636,26.6192974 106.644715,26.9234078 C106.917794,27.2275181 107.237415,27.4602521 107.603589,27.6216168 C107.969762,27.7829815 108.357652,27.8636626 108.76727,27.8636626 C109.176888,27.8636626 109.564778,27.7829815 109.930952,27.6216168 C110.297126,27.4602521 110.616747,27.2275181 110.889826,26.9234078 C111.162904,26.6192974 111.37702,26.2407168 111.532178,25.7876544 C111.687336,25.3345921 111.764914,24.816371 111.764914,24.2329757 C111.764914,23.6495803 111.687336,23.1313593 111.532178,22.6782969 C111.37702,22.2252346 111.162904,21.8435508 110.889826,21.5332341 C110.616747,21.2229175 110.297126,20.9870803 109.930952,20.8257157 C109.564778,20.664351 109.176888,20.5836699 108.76727,20.5836699 C108.357652,20.5836699 107.969762,20.664351 107.603589,20.8257157 C107.237415,20.9870803 106.917794,21.2229175 106.644715,21.5332341 C106.371636,21.8435508 106.157521,22.2252346 106.002363,22.6782969 C105.847204,23.1313593 105.769626,23.6495803 105.769626,24.2329757 Z M115.24665,19.4106787 L116.736163,19.4106787 L116.736163,21.4401396 L116.7734,21.4401396 C117.158193,20.6581416 117.629867,20.0809612 118.188437,19.7085812 C118.747007,19.3362012 119.454519,19.1624265 120.310993,19.1872518 L120.310993,20.8629535 C119.677947,20.8629535 119.138004,20.9498408 118.691148,21.1236182 C118.244292,21.2973955 117.88433,21.5518514 117.611251,21.8869934 C117.338173,22.2221354 117.139573,22.6286441 117.015446,23.1065318 C116.89132,23.5844195 116.829257,24.1336717 116.829257,24.7543051 L116.829257,29.0366538 L115.24665,29.0366538 L115.24665,19.4106787 Z M129.378401,25.983153 C129.167385,27.063055 128.701917,27.8760725 127.981983,28.4222298 C127.262048,28.9683872 126.355937,29.2414617 125.263622,29.2414617 C124.494037,29.2414617 123.826866,29.1173369 123.26209,28.8690836 C122.697313,28.6208303 122.222536,28.2732808 121.837743,27.8264248 C121.452951,27.3795688 121.16436,26.8458321 120.971964,26.2251988 C120.779568,25.6045654 120.670958,24.9280852 120.646133,24.1957379 C120.646133,23.4633905 120.757845,22.7931166 120.981273,22.1848959 C121.204701,21.5766752 121.518117,21.0491448 121.921528,20.6022888 C122.32494,20.1554328 122.80282,19.8078833 123.355184,19.55963 C123.907548,19.3113766 124.512656,19.1872518 125.170528,19.1872518 C126.027002,19.1872518 126.737616,19.3641297 127.302392,19.7178907 C127.867169,20.0716517 128.320224,20.5216041 128.661573,21.0677615 C129.002921,21.6139188 129.238758,22.2097179 129.369091,22.8551766 C129.499424,23.5006352 129.552177,24.115053 129.527352,24.6984484 L122.321835,24.6984484 C122.309422,25.120479 122.359072,25.5207815 122.470786,25.8993679 C122.5825,26.2779542 122.762481,26.6130912 123.010734,26.9047889 C123.258988,27.1964866 123.575506,27.4292206 123.960299,27.6029979 C124.345091,27.7767752 124.798147,27.8636626 125.319479,27.8636626 C125.989763,27.8636626 126.539015,27.7085066 126.967252,27.3981899 C127.395489,27.0878732 127.677873,26.616199 127.814412,25.983153 L129.378401,25.983153 Z M127.85165,23.3020303 C127.826825,22.9296503 127.743041,22.5758946 127.600295,22.2407526 C127.457549,21.9056106 127.265156,21.6170204 127.023109,21.3749734 C126.781062,21.1329264 126.495575,20.940533 126.166639,20.7977873 C125.837703,20.6550416 125.474638,20.5836699 125.077433,20.5836699 C124.667815,20.5836699 124.298544,20.6550416 123.969608,20.7977873 C123.640672,20.940533 123.358288,21.1360295 123.122448,21.3842829 C122.886607,21.6325362 122.70042,21.9211264 122.563881,22.2500621 C122.427341,22.5789977 122.34666,22.9296503 122.321835,23.3020303 L127.85165,23.3020303 Z"
            id="Imported-Layers" fill="#203040"></path>
        </g>
      </g>
    </g>
  </g>
</svg>

<svg width="152" height="45" xmlns="http://www.w3.org/2000/svg"><g fill="none" fill-rule="evenodd"><rect stroke="#203040" stroke-width="2" x="1" y="1" width="150" height="42.186" rx="7"/><path d="M30.004 14.36c2.866 0 4.698 2.772 4.698 2.772s-2.795 1.517-2.795 4.811c0 3.91 3.511 5.048 3.511 5.048s-2.771 6.577-5.884 6.577c-1.75 0-1.867-1.007-4.192-1.007-2.02 0-2.701 1.007-4.24 1.007-2.936 0-6.73-6.411-6.73-11.625 0-5.415 3.84-7.584 6.248-7.584 2.115 0 2.995 1.245 4.698 1.245 1.433 0 2.56-1.245 4.686-1.245zm-.493-5.523c.423 2.655-1.985 5.937-4.862 5.83-.423-3.377 2.678-5.652 4.862-5.83zm21.724 6.906h1.955l5.195 13.294H56.43l-1.453-4.003h-5.623l-1.49 4.003H46.06l5.176-13.294zm-1.322 7.801h4.506l-2.216-6.2h-.037l-2.253 6.2zm9.57-4.133h1.583v1.303h.037a2.37 2.37 0 0 1 1.229-1.164 4.587 4.587 0 0 1 1.843-.363c.745 0 1.393.137 1.946.41a3.957 3.957 0 0 1 1.377 1.108c.367.465.643 1.002.829 1.61a6.58 6.58 0 0 1 .28 1.937 6.79 6.79 0 0 1-.27 1.936 4.559 4.559 0 0 1-.82 1.592c-.366.453-.825.81-1.378 1.07-.552.261-1.194.391-1.927.391a4.757 4.757 0 0 1-1.657-.316 3.383 3.383 0 0 1-.81-.456 2.55 2.55 0 0 1-.642-.717h-.037v4.953h-1.583V19.41zm7.448 4.729c0-.447-.06-.885-.177-1.313a3.543 3.543 0 0 0-.54-1.145 2.646 2.646 0 0 0-.931-.8c-.379-.199-.823-.298-1.331-.298-.534 0-.987.105-1.36.316a2.724 2.724 0 0 0-.912.829c-.236.341-.406.729-.512 1.163a5.582 5.582 0 0 0-.158 1.322c0 .472.056.928.167 1.369.112.44.289.828.531 1.164.242.335.555.605.94.81.385.204.85.307 1.397.307.546 0 1.002-.106 1.368-.317.366-.21.661-.49.885-.838.223-.347.384-.744.484-1.191.099-.447.149-.906.149-1.378zm3.593-4.73h1.583v1.304h.037a2.37 2.37 0 0 1 1.229-1.164 4.587 4.587 0 0 1 1.843-.363c.745 0 1.393.137 1.946.41a3.957 3.957 0 0 1 1.377 1.108c.367.465.643 1.002.829 1.61a6.58 6.58 0 0 1 .28 1.937 6.79 6.79 0 0 1-.27 1.936 4.559 4.559 0 0 1-.82 1.592c-.366.453-.825.81-1.378 1.07-.552.261-1.194.391-1.927.391a4.757 4.757 0 0 1-1.657-.316 3.383 3.383 0 0 1-.81-.456 2.55 2.55 0 0 1-.642-.717h-.037v4.953h-1.583V19.41zm7.448 4.73c0-.447-.06-.885-.177-1.313a3.543 3.543 0 0 0-.54-1.145 2.646 2.646 0 0 0-.931-.8c-.379-.199-.823-.298-1.331-.298-.534 0-.987.105-1.36.316a2.724 2.724 0 0 0-.912.829c-.236.341-.406.729-.512 1.163a5.582 5.582 0 0 0-.158 1.322c0 .472.056.928.167 1.369.112.44.289.828.531 1.164.242.335.555.605.94.81.385.204.85.307 1.397.307.546 0 1.002-.106 1.368-.317.366-.21.661-.49.885-.838.223-.347.384-.744.484-1.191.099-.447.149-.906.149-1.378zm16.664-4.506c-.1-.956-.444-1.648-1.034-2.076-.59-.428-1.343-.642-2.262-.642-.372 0-.739.037-1.099.111-.36.075-.68.2-.958.373-.28.174-.503.406-.67.698-.168.292-.252.655-.252 1.09 0 .409.121.74.363.995s.565.463.968.624c.404.161.86.295 1.369.4.509.106 1.027.22 1.554.345.528.124 1.046.27 1.555.437.509.168.965.394 1.369.68.403.285.726.645.968 1.08.242.434.363.98.363 1.638 0 .708-.158 1.313-.475 1.816a3.908 3.908 0 0 1-1.22 1.229 5.307 5.307 0 0 1-1.666.688 8.082 8.082 0 0 1-3.947-.065 5.219 5.219 0 0 1-1.75-.847 4.016 4.016 0 0 1-1.192-1.452c-.292-.59-.437-1.288-.437-2.095h1.675c0 .559.109 1.04.326 1.443.217.404.503.736.857.996.353.261.766.453 1.238.577.471.125.955.187 1.452.187.397 0 .797-.038 1.2-.112a3.538 3.538 0 0 0 1.09-.382c.323-.18.583-.425.782-.735.199-.31.298-.708.298-1.192 0-.46-.121-.831-.363-1.117a2.668 2.668 0 0 0-.968-.698 7.088 7.088 0 0 0-1.369-.438 415.95 415.95 0 0 1-1.554-.344 21.15 21.15 0 0 1-1.555-.41 5.627 5.627 0 0 1-1.369-.614 2.943 2.943 0 0 1-.968-.987c-.242-.403-.363-.91-.363-1.517 0-.67.137-1.251.41-1.741.273-.49.636-.894 1.089-1.21a4.889 4.889 0 0 1 1.545-.708 6.82 6.82 0 0 1 1.778-.233c.683 0 1.316.08 1.9.242a4.3 4.3 0 0 1 1.536.764c.44.347.788.785 1.042 1.312.255.528.394 1.158.42 1.89h-1.676zm6.311-.223h1.918v1.396h-1.918v5.977c0 .186.016.335.047.447a.46.46 0 0 0 .177.26.782.782 0 0 0 .363.121c.155.019.357.028.605.028h.726v1.397h-1.21c-.41 0-.76-.028-1.052-.084a1.545 1.545 0 0 1-.708-.307 1.313 1.313 0 0 1-.4-.633c-.087-.273-.13-.633-.13-1.08v-6.126h-1.639v-1.396h1.639v-2.886h1.582v2.886zm3.147 4.822c0-.708.1-1.369.298-1.983a4.493 4.493 0 0 1 .894-1.601 4.21 4.21 0 0 1 1.47-1.07c.584-.261 1.254-.392 2.011-.392.77 0 1.443.13 2.02.391.578.26 1.065.618 1.462 1.07.397.454.695.988.894 1.602.198.614.298 1.275.298 1.983 0 .707-.1 1.365-.298 1.974a4.505 4.505 0 0 1-.894 1.591 4.13 4.13 0 0 1-1.462 1.062c-.577.254-1.25.381-2.02.381-.757 0-1.427-.127-2.01-.381a4.111 4.111 0 0 1-1.471-1.062 4.505 4.505 0 0 1-.894-1.591 6.323 6.323 0 0 1-.298-1.974zm1.676 0c0 .583.077 1.102.232 1.555.156.453.37.831.643 1.135.273.305.592.537.959.699.366.161.754.242 1.163.242.41 0 .798-.081 1.164-.242.366-.162.686-.394.959-.699.273-.304.487-.682.642-1.135.155-.453.233-.972.233-1.555s-.078-1.102-.233-1.555a3.355 3.355 0 0 0-.642-1.145 2.735 2.735 0 0 0-.959-.707 2.854 2.854 0 0 0-1.164-.242c-.41 0-.797.08-1.163.242a2.735 2.735 0 0 0-.96.707c-.272.31-.486.692-.642 1.145-.155.453-.232.972-.232 1.555zm9.477-4.822h1.49v2.03h.036c.385-.783.857-1.36 1.415-1.732.559-.373 1.267-.547 2.123-.522v1.676c-.633 0-1.173.087-1.62.26a2.554 2.554 0 0 0-1.08.764 3.158 3.158 0 0 0-.596 1.22 6.581 6.581 0 0 0-.186 1.647v4.283h-1.582V19.41zm14.131 6.572c-.21 1.08-.676 1.893-1.396 2.44-.72.545-1.626.818-2.718.818-.77 0-1.437-.124-2.002-.372a3.946 3.946 0 0 1-1.424-1.043 4.43 4.43 0 0 1-.866-1.6 7.716 7.716 0 0 1-.326-2.03c0-.733.112-1.403.335-2.011a4.806 4.806 0 0 1 .94-1.583 4.266 4.266 0 0 1 1.434-1.042 4.377 4.377 0 0 1 1.816-.373c.856 0 1.567.177 2.131.53a4.216 4.216 0 0 1 1.36 1.35c.34.547.577 1.143.707 1.788.13.646.183 1.26.158 1.843h-7.205a3.82 3.82 0 0 0 .149 1.201c.111.379.291.714.54 1.006.248.291.565.524.95.698.384.174.837.26 1.358.26.67 0 1.22-.154 1.648-.465.428-.31.71-.782.847-1.415h1.564zm-1.526-2.681a3.238 3.238 0 0 0-.252-1.061 2.713 2.713 0 0 0-.577-.866 2.707 2.707 0 0 0-1.946-.791c-.41 0-.778.071-1.107.214a2.558 2.558 0 0 0-.848.586 2.806 2.806 0 0 0-.558.866c-.137.329-.217.68-.242 1.052h5.53z" fill="#203040"/></g></svg>
